figures-source/5.16.svg

<svg xmlns:rdf="http://www.w3.org/1999/02/22-rdf-syntax-ns#" xmlns="http://www.w3.org/2000/svg" height="246.5" width="472.52" version="1.1" xmlns:cc="http://creativecommons.org/ns#" xmlns:dc="http://purl.org/dc/elements/1.1/">
 <metadata>
  <rdf:RDF>
   <cc:Work rdf:about="">
    <dc:format>image/svg+xml</dc:format>
    <dc:type rdf:resource="http://purl.org/dc/dcmitype/StillImage"/>
    <dc:title/>
   </cc:Work>
  </rdf:RDF>
 </metadata>
 <defs>
  <marker id="Arrow1Lend" refY="0" refX="0" orient="auto">
   <path style="marker-start:none;" d="m-10,0,0-2,10,2-10,2z" fill-rule="evenodd" stroke="#000" stroke-width="1px"/>
  </marker>
 </defs>
 <g transform="translate(-19.5,-101)">
  <rect rx="6.1162" ry="18" height="36" width="59.09" stroke="#616161" y="165.74" x="240.55" stroke-width="3px" fill="#d3f5d6"/>
  <text font-family="Courier New" font-size="12px" stroke="#000000" y="165.74001" x="240.548" stroke-width="0px" fill="#000000">
   <tspan font-size="12px" fill="#000000" style="text-anchor:middle;text-align:center;" stroke="#000000" y="189.74001" x="270.09311" font-family="&apos;Courier" text-align="center">33009</tspan>
  </text>
  <rect rx="6.1162" ry="18" height="36" width="59.09" stroke="#616161" y="165.74" x="138" stroke-width="3px" fill="#d3f5d6"/>
  <text font-family="Courier New" font-size="12px" stroke="#000000" y="165.74001" x="138" stroke-width="0px" fill="#000000">
   <tspan font-size="12px" fill="#000000" style="text-anchor:middle;text-align:center;" stroke="#000000" y="189.74001" x="167.5451" font-family="&apos;Courier" text-align="center">1edee</tspan>
  </text>
  <path style="marker-start:none;marker-end:url(#Arrow1Lend);" fill="none" d="m239.05,183.74-40.458,0" stroke="#000"/>
  <path style="marker-end:url(#Arrow1Lend);marker-start:none;" d="M51.866,183.25,20,182.74" stroke="#000" stroke-dasharray="3, 3" fill="none"/>
  <rect height="36" width="70.022" stroke="#616161" y="102" x="132.53" stroke-width="2px" fill="#EEE"/>
  <text font-family="Luxi Sans" font-size="10px" stroke="#cccccc" y="102" x="132.534" stroke-width="0px" fill="#cccccc">
   <tspan font-size="10px" fill="#777777" style="text-anchor:middle;text-align:center;" stroke="#777777" y="125" x="167.5451" font-family="&apos;LucidaGrande" text-align="center">master</tspan>
  </text>
  <path style="marker-start:none;marker-end:url(#Arrow1Lend);" fill="none" d="m167.54,139,0,25.24" stroke="#000"/>
  <rect rx="6.1162" ry="18" height="36" width="59.09" stroke="#616161" y="165.74" x="53.363" stroke-width="3px" fill="#d3f5d6"/>
  <text font-family="Courier New" font-size="12px" stroke="#000000" y="165.74001" x="53.362999" stroke-width="0px" fill="#000000">
   <tspan font-size="12px" fill="#000000" style="text-anchor:middle;text-align:center;" stroke="#000000" y="189.74001" x="82.908096" font-family="&apos;Courier" text-align="center">4b078</tspan>
  </text>
  <path style="marker-start:none;marker-end:url(#Arrow1Lend);" fill="none" d="m136.5,183.74-22.547,0" stroke="#000"/>
  <rect rx="6.1162" ry="18" height="36" width="59.09" stroke="#616161" y="310" x="240.55" stroke-width="3px" fill="#d3f5d6"/>
  <text font-family="Courier New" font-size="12px" stroke="#000000" y="310" x="240.548" stroke-width="0px" fill="#000000">
   <tspan font-size="12px" fill="#000000" style="text-anchor:middle;text-align:center;" stroke="#000000" y="334" x="270.09311" font-family="&apos;Courier" text-align="center">e5b0f</tspan>
  </text>
  <path style="marker-start:none;marker-end:url(#Arrow1Lend);" fill="none" d="M247.07,309.21,207,276.5,175.79,203.12" stroke="#000"/>
  <rect height="36" width="70.022" stroke="#616161" y="310" x="332.27" stroke-width="2px" fill="#EEE"/>
  <text font-family="Luxi Sans" font-size="10px" stroke="#cccccc" y="310" x="332.27399" stroke-width="0px" fill="#cccccc">
   <tspan font-size="10px" fill="#777777" style="text-anchor:middle;text-align:center;" stroke="#777777" y="333" x="367.2851" font-family="&apos;LucidaGrande" text-align="center">featureB</tspan>
  </text>
  <rect height="36" width="82.466" stroke="#616161" y="102" x="228.86" stroke-width="2px" fill="#EEE"/>
  <text font-family="Luxi Sans" font-size="10px" stroke="#cccccc" y="102" x="228.86" stroke-width="0px" fill="#cccccc">
   <tspan font-size="10px" fill="#777777" style="text-anchor:middle;text-align:center;" stroke="#777777" y="125" x="270.09305" font-family="&apos;LucidaGrande" text-align="center">origin/master</tspan>
  </text>
  <path style="marker-start:none;marker-end:url(#Arrow1Lend);" fill="none" d="m270.09,139,0,25.24" stroke="#000"/>
  <path style="marker-start:none;marker-end:url(#Arrow1Lend);" fill="none" d="m331.27,328-30.136,0" stroke="#000"/>
  <rect rx="6.1162" ry="18" height="36" width="59.09" stroke="#616161" y="237.87" x="240.55" stroke-width="3px" fill="#d3f5d6"/>
  <text font-family="Courier New" font-size="12px" stroke="#000000" y="237.87" x="240.548" stroke-width="0px" fill="#000000">
   <tspan font-size="12px" fill="#000000" style="text-anchor:middle;text-align:center;" stroke="#000000" y="261.87" x="270.09311" font-family="&apos;Courier" text-align="center">a2de3</tspan>
  </text>
  <rect height="36" width="70.022" stroke="#616161" y="240.5" x="421" stroke-width="2px" fill="#EEE"/>
  <text font-family="Luxi Sans" font-size="10px" stroke="#cccccc" y="240.5" x="421" stroke-width="0px" fill="#cccccc">
   <tspan font-size="10px" fill="#777777" style="text-anchor:middle;text-align:center;" stroke="#777777" y="263.5" x="456.01111" font-family="&apos;LucidaGrande" text-align="center">featureA</tspan>
  </text>
  <path style="marker-start:none;marker-end:url(#Arrow1Lend);" fill="none" d="m420,257.51-28.768-0.79" stroke="#000"/>
  <path style="marker-start:none;marker-end:url(#Arrow1Lend);" fill="none" d="M244.99,238.21,192.65,201.4" stroke="#000"/>
  <rect rx="6.1162" ry="18" height="36" width="59.09" stroke="#616161" y="237.87" x="330.65" stroke-width="3px" fill="#d3f5d6"/>
  <text font-family="Courier New" font-size="12px" stroke="#000000" y="237.87" x="330.651" stroke-width="0px" fill="#000000">
   <tspan font-size="12px" fill="#000000" style="text-anchor:middle;text-align:center;" stroke="#000000" y="261.87" x="360.19611" font-family="&apos;Courier" text-align="center">0d708</tspan>
  </text>
  <path style="marker-start:none;marker-end:url(#Arrow1Lend);" fill="none" d="m329.15,255.87-28.013,0" stroke="#000"/>
 </g>
</svg>

<?xml version="1.0" encoding="utf-8"?>
<svg xmlns="http://www.w3.org/2000/svg" xmlns:xlink="http://www.w3.org/1999/xlink">
	<defs>
		<marker id="Arrow1Lend" orient="auto" refX="0.0" refY="0.0" style="overflow:visible;">
			
              
			<path d="M -10,0.0 L -10.0,-2.0 L 0.0,0.0 L -10.0,2.0 z " id="path3666" style="fill-rule:evenodd;stroke:#000000;stroke-width:1.0px;marker-start:none;"/>
			
            
		</marker>
	</defs>
	<g style="stroke:#000000;fill:#fff">
		<rect height="36.0" id="1342" rx="6.1162089889" ry="18.0" style="stroke:#616161;stroke-width:3.000000px;fill:#d3f5d6" width="59.0902" x="240.548" y="165.74"/>
		<text id="1342_text" style="fill:#000000;stroke:#000000;stroke-width:0px;font-family: Courier New;font-size:12px" x="240.548" y="165.74">
			<tspan fill="#000000" font-family="Courier;" font-size="12.0px" id="1342_line1" stroke="#000000" text-align="center" text-anchor="middle" x="270.0931" y="189.74">
				33009
			</tspan>
		</text>
		<rect height="36.0" id="1344" rx="6.1162089889" ry="18.0" style="stroke:#616161;stroke-width:3.000000px;fill:#d3f5d6" width="59.0902" x="138.0" y="165.74"/>
		<text id="1344_text" style="fill:#000000;stroke:#000000;stroke-width:0px;font-family: Courier New;font-size:12px" x="138.0" y="165.74">
			<tspan fill="#000000" font-family="Courier;" font-size="12.0px" id="1344_line1" stroke="#000000" text-align="center" text-anchor="middle" x="167.5451" y="189.74">
				1edee
			</tspan>
		</text>
		<path d="M 239.048,183.74 L 198.59,183.74" id="1347" style="marker-start:none;stroke:#000000;marker-end:url(#Arrow1Lend);fill:none"/>
		<path d="M 51.8662,183.247 L 20.0,182.74" id="1349" style="marker-start:none;stroke:#000000;marker-end:url(#Arrow1Lend);stroke-dasharray:3 3;fill:none"/>
		<rect height="36.0" id="1350" style="stroke:#616161;stroke-width:2.000000px;fill:#eeeeee" width="70.0222" x="132.534" y="102.0"/>
		<text id="1350_text" style="fill:#cccccc;stroke:#cccccc;stroke-width:0px;font-family: Luxi Sans;font-size:10px" x="132.534" y="102.0">
			<tspan fill="#777777" font-family="LucidaGrande;" font-size="10.0px" id="1350_line1" stroke="#777777" text-align="center" text-anchor="middle" x="167.5451" y="125.0">
				master
			</tspan>
		</text>
		<path d="M 167.545,139.0 L 167.545,164.24" id="1351" style="marker-start:none;stroke:#000000;marker-end:url(#Arrow1Lend);fill:none"/>
		<rect height="36.0" id="1356" rx="6.1162089889" ry="18.0" style="stroke:#616161;stroke-width:3.000000px;fill:#d3f5d6" width="59.0902" x="53.363" y="165.74"/>
		<text id="1356_text" style="fill:#000000;stroke:#000000;stroke-width:0px;font-family: Courier New;font-size:12px" x="53.363" y="165.74">
			<tspan fill="#000000" font-family="Courier;" font-size="12.0px" id="1356_line1" stroke="#000000" text-align="center" text-anchor="middle" x="82.9081" y="189.74">
				4b078
			</tspan>
		</text>
		<path d="M 136.5,183.74 L 113.953,183.74" id="1357" style="marker-start:none;stroke:#000000;marker-end:url(#Arrow1Lend);fill:none"/>
		<rect height="36.0" id="1343" rx="6.1162089889" ry="18.0" style="stroke:#616161;stroke-width:3.000000px;fill:#d3f5d6" width="59.0902" x="240.548" y="310.0"/>
		<text id="1343_text" style="fill:#000000;stroke:#000000;stroke-width:0px;font-family: Courier New;font-size:12px" x="240.548" y="310.0">
			<tspan fill="#000000" font-family="Courier;" font-size="12.0px" id="1343_line1" stroke="#000000" text-align="center" text-anchor="middle" x="270.0931" y="334.0">
				e5b0f
			</tspan>
		</text>
		<path d="M 247.072,309.209 L 207.0,276.5  L 175.788,203.12" id="1373" style="marker-start:none;stroke:#000000;marker-end:url(#Arrow1Lend);fill:none"/>
		<rect height="36.0" id="1380" style="stroke:#616161;stroke-width:2.000000px;fill:#eeeeee" width="70.0222" x="332.274" y="310.0"/>
		<text id="1380_text" style="fill:#cccccc;stroke:#cccccc;stroke-width:0px;font-family: Luxi Sans;font-size:10px" x="332.274" y="310.0">
			<tspan fill="#777777" font-family="LucidaGrande;" font-size="10.0px" id="1380_line1" stroke="#777777" text-align="center" text-anchor="middle" x="367.2851" y="333.0">
				featureB
			</tspan>
		</text>
		<rect height="36.0" id="1396" style="stroke:#616161;stroke-width:2.000000px;fill:#eeeeee" width="82.4661" x="228.86" y="102.0"/>
		<text id="1396_text" style="fill:#cccccc;stroke:#cccccc;stroke-width:0px;font-family: Luxi Sans;font-size:10px" x="228.86" y="102.0">
			<tspan fill="#777777" font-family="LucidaGrande;" font-size="10.0px" id="1396_line1" stroke="#777777" text-align="center" text-anchor="middle" x="270.09305" y="125.0">
				origin/master
			</tspan>
		</text>
		<path d="M 270.093,139.0 L 270.093,164.24" id="1397" style="marker-start:none;stroke:#000000;marker-end:url(#Arrow1Lend);fill:none"/>
		<path d="M 331.274,328.0 L 301.138,328.0" id="1398" style="marker-start:none;stroke:#000000;marker-end:url(#Arrow1Lend);fill:none"/>
		<rect height="36.0" id="1399" rx="6.1162089889" ry="18.0" style="stroke:#616161;stroke-width:3.000000px;fill:#d3f5d6" width="59.0902" x="240.548" y="237.87"/>
		<text id="1399_text" style="fill:#000000;stroke:#000000;stroke-width:0px;font-family: Courier New;font-size:12px" x="240.548" y="237.87">
			<tspan fill="#000000" font-family="Courier;" font-size="12.0px" id="1399_line1" stroke="#000000" text-align="center" text-anchor="middle" x="270.0931" y="261.87">
				a2de3
			</tspan>
		</text>
		<rect height="36.0" id="1400" style="stroke:#616161;stroke-width:2.000000px;fill:#eeeeee" width="70.0222" x="421.0" y="240.5"/>
		<text id="1400_text" style="fill:#cccccc;stroke:#cccccc;stroke-width:0px;font-family: Luxi Sans;font-size:10px" x="421.0" y="240.5">
			<tspan fill="#777777" font-family="LucidaGrande;" font-size="10.0px" id="1400_line1" stroke="#777777" text-align="center" text-anchor="middle" x="456.0111" y="263.5">
				featureA
			</tspan>
		</text>
		<path d="M 420.0,257.512 L 391.232,256.722" id="1401" style="marker-start:none;stroke:#000000;marker-end:url(#Arrow1Lend);fill:none"/>
		<path d="M 244.99,238.213 L 192.648,201.397" id="1402" style="marker-start:none;stroke:#000000;marker-end:url(#Arrow1Lend);fill:none"/>
		<rect height="36.0" id="1403" rx="6.1162089889" ry="18.0" style="stroke:#616161;stroke-width:3.000000px;fill:#d3f5d6" width="59.0902" x="330.651" y="237.87"/>
		<text id="1403_text" style="fill:#000000;stroke:#000000;stroke-width:0px;font-family: Courier New;font-size:12px" x="330.651" y="237.87">
			<tspan fill="#000000" font-family="Courier;" font-size="12.0px" id="1403_line1" stroke="#000000" text-align="center" text-anchor="middle" x="360.1961" y="261.87">
				0d708
			</tspan>
		</text>
		<path d="M 329.151,255.87 L 301.138,255.87" id="1404" style="marker-start:none;stroke:#000000;marker-end:url(#Arrow1Lend);fill:none"/>
	</g>
</svg>
